X: 179
T: A Fiddle Affair
R: reel
M: 4/4
K: Fmajor
AFAc fcfg|afcB AFFE|FFEF A2c2|d2f2 f2e2|
AFAc fcfg|afcB AGFE|FFFD C2B,2|A,2E2 F2F2:|
|:afaa fcdF|GABc dffe|acca fcdF|GECE F2Fc|
afaa fcdF|GABc dffe|acca fcdF|GECE F2F2:|

